src/next/sw/res/sidebar/pageproppanel/column_L_1_24x24.svg

<svg height="24" viewBox="0 0 6.3499999 6.3500002" width="24" xmlns="http://www.w3.org/2000/svg" xmlns:xlink="http://www.w3.org/1999/xlink"><linearGradient id="a" gradientTransform="matrix(.02565158 0 0 .055299 4.035773 232.7452)" gradientUnits="userSpaceOnUse" x1="399.77466" x2="399.77466" y1="1164.6696" y2="549.06134"><stop offset="0" stop-color="#b4b4b6"/><stop offset=".5" stop-color="#9c9ca1"/><stop offset="1" stop-color="#cdcdd1"/></linearGradient><linearGradient id="b" gradientTransform="matrix(.21887413 0 0 .41157411 -32.274577 -306.40782)" gradientUnits="userSpaceOnUse" x1="173.2455" x2="-102.13699" y1="70.857895" y2="70.857895"><stop offset="0" stop-color="#fff"/><stop offset=".42597079" stop-color="#fff"/><stop offset=".5892781" stop-color="#f1f1f1"/><stop offset=".80219781" stop-color="#eaeaea"/><stop offset="1" stop-color="#dfdfdf"/></linearGradient><g transform="matrix(.1875 0 0 .1875 0 -49.337498)"><rect fill="url(#a)" height="31.04425" rx=".755952" ry=".732692" width="23.988752" x="5.64441" y="264.54462"/><rect fill="url(#b)" fill-rule="evenodd" height="28.222046" rx=".463021" transform="scale(-1)" width="21.166548" x="-28.222059" y="-294.1778"/><g fill="#2e3436" fill-opacity=".580882"><path d="m8.466614 267.36685h18.34433v1.4111h-18.34433z"/><path d="m8.466614 270.18906h18.34433v1.4111h-18.34433z"/><path d="m8.466614 273.01126h18.34433v1.4111h-18.34433z"/><path d="m8.466614 275.83347h18.34433v1.4111h-18.34433z"/><path d="m8.466614 278.65567h18.34433v1.4111h-18.34433z"/><path d="m8.466614 281.47787h18.34433v1.4111h-18.34433z"/><path d="m8.466614 284.30008h18.34433v1.4111h-18.34433z"/><path d="m8.466614 287.12228h18.34433v1.4111h-18.34433z"/><path d="m8.466614 289.94449h18.34433v1.4111h-18.34433z"/></g></g></svg>

<?xml version="1.0" encoding="UTF-8" standalone="no"?>
<svg
   xmlns:dc="http://purl.org/dc/elements/1.1/"
   xmlns:cc="http://creativecommons.org/ns#"
   xmlns:rdf="http://www.w3.org/1999/02/22-rdf-syntax-ns#"
   xmlns:svg="http://www.w3.org/2000/svg"
   xmlns="http://www.w3.org/2000/svg"
   xmlns:sodipodi="http://sodipodi.sourceforge.net/DTD/sodipodi-0.dtd"
   xmlns:inkscape="http://www.inkscape.org/namespaces/inkscape"
   height="24"
   viewBox="0 0 6.3499999 6.3500002"
   width="24"
   version="1.1"
   id="svg46"
   sodipodi:docname="column_L_1_24x24.svg"
   inkscape:version="0.92.4 (unknown)">
  <metadata
     id="metadata52">
    <rdf:RDF>
      <cc:Work
         rdf:about="">
        <dc:format>image/svg+xml</dc:format>
        <dc:type
           rdf:resource="http://purl.org/dc/dcmitype/StillImage" />
        <dc:title></dc:title>
      </cc:Work>
    </rdf:RDF>
  </metadata>
  <defs
     id="defs50" />
  <sodipodi:namedview
     pagecolor="#ffffff"
     bordercolor="#666666"
     borderopacity="1"
     objecttolerance="10"
     gridtolerance="10"
     guidetolerance="10"
     inkscape:pageopacity="0"
     inkscape:pageshadow="2"
     inkscape:window-width="640"
     inkscape:window-height="480"
     id="namedview48"
     showgrid="true"
     inkscape:zoom="15.5"
     inkscape:cx="5.7931853"
     inkscape:cy="17.773323"
     inkscape:current-layer="svg46">
    <inkscape:grid
       type="xygrid"
       id="grid4794" />
  </sodipodi:namedview>
  <linearGradient
     id="a"
     gradientTransform="matrix(0.02565158,0,0,0.055299,4.035773,232.7452)"
     gradientUnits="userSpaceOnUse"
     x1="399.77466"
     x2="399.77466"
     y1="1164.6696"
     y2="549.06134">
    <stop
       offset="0"
       stop-color="#b4b4b6"
       id="stop2" />
    <stop
       offset=".5"
       stop-color="#9c9ca1"
       id="stop4" />
    <stop
       offset="1"
       stop-color="#cdcdd1"
       id="stop6" />
  </linearGradient>
  <linearGradient
     id="b"
     gradientTransform="matrix(0.21887413,0,0,0.41157411,-32.274577,-306.40782)"
     gradientUnits="userSpaceOnUse"
     x1="173.2455"
     x2="-102.13699"
     y1="70.857895"
     y2="70.857895">
    <stop
       offset="0"
       stop-color="#fff"
       id="stop9" />
    <stop
       offset=".42597079"
       stop-color="#fff"
       id="stop11" />
    <stop
       offset=".5892781"
       stop-color="#f1f1f1"
       id="stop13" />
    <stop
       offset=".80219781"
       stop-color="#eaeaea"
       id="stop15" />
    <stop
       offset="1"
       stop-color="#dfdfdf"
       id="stop17" />
  </linearGradient>
  <g
     transform="matrix(0.1875,0,0,0.1875,0,-49.337498)"
     id="g44">
    <rect
       style="fill:url(#a)"
       height="31.04425"
       rx="0.755952"
       ry="0.732692"
       width="23.988752"
       x="5.6444101"
       y="264.54462"
       id="rect20" />
    <rect
       style="fill:url(#b);fill-rule:evenodd"
       height="28.222046"
       rx="0.46302101"
       transform="scale(-1)"
       width="21.166548"
       x="-28.222059"
       y="-294.1778"
       id="rect22" />
    <g
       style="fill:#2e3436;fill-opacity:0.58088199"
       id="g42">
      <path
         inkscape:connector-curvature="0"
         d="m 8.466614,267.36685 h 18.34433 v 1.4111 H 8.466614 Z"
         id="path24" />
      <path
         inkscape:connector-curvature="0"
         d="m 8.466614,270.18906 h 18.34433 v 1.4111 H 8.466614 Z"
         id="path26" />
      <path
         inkscape:connector-curvature="0"
         d="m 8.466614,273.01126 h 18.34433 v 1.4111 H 8.466614 Z"
         id="path28" />
      <path
         inkscape:connector-curvature="0"
         d="m 8.466614,275.83347 h 18.34433 v 1.4111 H 8.466614 Z"
         id="path30" />
      <path
         inkscape:connector-curvature="0"
         d="m 8.466614,278.65567 h 18.34433 v 1.4111 H 8.466614 Z"
         id="path32" />
      <path
         inkscape:connector-curvature="0"
         d="m 8.466614,281.47787 h 18.34433 v 1.4111 H 8.466614 Z"
         id="path34" />
      <path
         inkscape:connector-curvature="0"
         d="m 8.466614,284.30008 h 18.34433 v 1.4111 H 8.466614 Z"
         id="path36" />
      <path
         inkscape:connector-curvature="0"
         d="m 8.466614,287.12228 h 18.34433 v 1.4111 H 8.466614 Z"
         id="path38" />
      <path
         inkscape:connector-curvature="0"
         d="m 8.466614,289.94449 h 18.34433 v 1.4111 H 8.466614 Z"
         id="path40" />
    </g>
  </g>
</svg>
